svgs/sharp-light/clock-rotate-left.svg

<svg xmlns="http://www.w3.org/2000/svg" viewBox="0 0 512 512"><!--! Font Awesome Pro 7.1.0 by @fontawesome - https://fontawesome.com License - https://fontawesome.com/license (Commercial License) Copyright 2025 Fonticons, Inc. --><path fill="currentColor" d="M32 132l0-100-32 0 0 160 160 0 0-32-106.4 0C89.5 84.3 166.7 32 256 32 379.7 32 480 132.3 480 256S379.7 480 256 480c-73.3 0-138.3-35.2-179.2-89.6l-9.6-12.8-25.6 19.2 9.6 12.8C97.9 471.8 172.2 512 256 512 397.4 512 512 397.4 512 256S397.4 0 256 0C159.6 0 75.7 53.3 32 132zm240-4l-32 0 0 134.6 4.7 4.7 80 80 11.3 11.3 22.6-22.6-11.3-11.3-75.3-75.3 0-121.4z"/></svg>

<svg xmlns="http://www.w3.org/2000/svg" viewBox="0 0 512 512"><!--! Font Awesome Pro 6.7.2 by @fontawesome - https://fontawesome.com License - https://fontawesome.com/license (Commercial License) Copyright 2024 Fonticons, Inc. --><path d="M32 132l0-84 0-16L0 32 0 48 0 176l0 16 16 0 128 0 16 0 0-32-16 0-90.4 0C89.5 84.3 166.7 32 256 32c123.7 0 224 100.3 224 224s-100.3 224-224 224c-73.3 0-138.3-35.2-179.2-89.6l-9.6-12.8L41.6 396.8l9.6 12.8C97.9 471.8 172.2 512 256 512c141.4 0 256-114.6 256-256S397.4 0 256 0C159.6 0 75.7 53.3 32 132zm240-4l-32 0 0 16 0 112 0 6.6 4.7 4.7 80 80L336 358.6 358.6 336l-11.3-11.3L272 249.4 272 144l0-16z"/></svg>
